X: 18746
T: Ievan Polkka
R: polka
M: 2/4
K: Bminor
F|:"Bm"B>B Bc|dB Bd|"A"cA Ac|"Bm"d/c/B/A/ BF|
"Bm"B>B Bc|dB Bd|"D"f>e dc|1 "Bm"dB B2:|2 "Bm"dB Bd||
|:"D"ff/f/ ed|"A"cA Ac|"Em"ee/e/ "A"dc|"Bm"dB B2|
"D"ff/f/ ed|"A"cA Ac|"Em"e>e "A"dc|1 "Bm"dB Bd:|2 "Bm"dB/B/ B2||

